X: 7
M: 6/8
L: 1/8
K: D
(fe) d (dB) A | (AB) d e2 A |
d2 d (ed) e | (fg) f (ed) e | {de}(fe) d
(dB) A | (AB) d d2 :: f | a2 b
(af) d | a2 b (af) d | (af) d (af) d |
{b}Ha2 "^Ad lib."(g/f/) {f}He2 A | d2 d (ed) e | {de}(fg) f
(ed) e | {de}(fe) d (dB) A | (AB) d d2 :|

